svg/600/outlined/view_comfy_alt.svg

<svg xmlns="http://www.w3.org/2000/svg" width="48" height="48" viewBox="0 -960 960 960"><path d="M69.26-549.26v-342.045h342.045v342.045H69.26Zm79.219-79.219h183.042v-183.042H148.479v183.042ZM69.26-69.26v-342.045h342.045V-69.26H69.26Zm79.219-79.219h183.042v-183.042H148.479v183.042ZM549.26-549.26v-342.045h342.045v342.045H549.26Zm79.219-79.219h183.042v-183.042H628.479v183.042ZM549.26-69.26v-342.045h342.045V-69.26H549.26Zm79.219-79.219h183.042v-183.042H628.479v183.042Zm-296.958-480Zm0 296.958Zm296.958-296.958Zm0 296.958Z"/></svg>

<svg xmlns="http://www.w3.org/2000/svg" width="48" height="48" viewBox="0 -960 960 960"><path d="M69.26-549.26V-891.3H411.3v342.04H69.26Zm79.22-79.22h183.04v-183.04H148.48v183.04ZM69.26-69.26V-411.3H411.3v342.04H69.26Zm79.22-79.22h183.04v-183.04H148.48v183.04Zm400.78-400.78V-891.3H891.3v342.04H549.26Zm79.22-79.22h183.04v-183.04H628.48v183.04ZM549.26-69.26V-411.3H891.3v342.04H549.26Zm79.22-79.22h183.04v-183.04H628.48v183.04Zm-296.96-480Zm0 296.96Zm296.96-296.96Zm0 296.96Z"/></svg>
